;FLAVOR:Marlin
;TIME:58040
;Filament used: 57.6123m
;Layer height: 0.28
;MINX:18.283
;MINY:25.347
;MINZ:0.28
;MAXX:270.612
;MAXY:277.67
;MAXZ:75.6
;Generated with Cura_SteamEngine 4.9.1
M140 S60
M105
M190 S60
M104 S200
M105
M109 S200
M82 ;absolute extrusion mode
M201 X500.00 Y500.00 Z100.00 E5000.00 ;Setup machine max acceleration
M203 X500.00 Y500.00 Z10.00 E50.00 ;Setup machine max feedrate
M204 P500.00 R1000.00 T500.00 ;Setup Print/Retract/Travel acceleration
M205 X8.00 Y8.00 Z0.40 E5.00 ;Setup Jerk
M220 S100 ;Reset Feedrate
M221 S100 ;Reset Flowrate

G28 ;Home

G92 E0 ;Reset Extruder
G1 Z2.0 F3000 ;Move Z Axis up
G1 X10.1 Y20 Z0.28 F5000.0 ;Move to start position
G1 X10.1 Y200.0 Z0.28 F1500.0 E15 ;Draw the first line
G1 X10.4 Y200.0 Z0.28 F5000.0 ;Move to side a little
G1 X10.4 Y20 Z0.28 F1500.0 E30 ;Draw the second line
G92 E0 ;Reset Extruder
G1 Z2.0 F3000 ;Move Z Axis up

G92 E0
G92 E0
G1 F2700 E-5
;LAYER_COUNT:272
;LAYER:0
M107
G0 F6000 X91.037 Y60.483 Z0.28
;TYPE:SKIRT
G1 F2700 E0
G1 F1200 X91.518 Y60.016 E0.03122
G1 X92.313 Y59.314 E0.0806
G1 X93.07 Y58.76 E0.12428
G1 X93.871 Y58.273 E0.16793
G1 X94.711 Y57.855 E0.21162
G1 X95.583 Y57.51 E0.25529
G1 X96.482 Y57.241 E0.29898
G1 X97.4 Y57.05 E0.34264
G1 X98.476 Y56.927 E0.39307
G1 X98.878 Y56.901 E0.41183
G1 X101.532 Y56.694 E0.53579
G1 X103.984 Y56.431 E0.65062
G1 X106.505 Y56.091 E0.76907
G1 X108.983 Y55.683 E0.88601
G1 X111.444 Y55.207 E1.00273
G1 X113.894 Y54.66 E1.11962
G1 X116.372 Y54.035 E1.23862
G1 X118.773 Y53.355 E1.35482
G1 X121.158 Y52.605 E1.47123
G1 X123.581 Y51.769 E1.59059
G1 X125.889 Y50.898 E1.70545
G1 X128.257 Y49.927 E1.82463
G1 X130.639 Y48.87 E1.94597
G1 X131.512 Y48.526 E1.98967
G1 X132.411 Y48.259 E2.03333
G1 X133.329 Y48.068 E2.077
G1 X134.26 Y47.957 E2.12065
G1 X135.198 Y47.925 E2.16436
G1 X136.134 Y47.974 E2.208
G1 X137.063 Y48.102 E2.25167
G1 X137.978 Y48.309 E2.29535
G1 X138.684 Y48.526 E2.32974
G1 X139.252 Y48.722 E2.35772
G1 X141.741 Y49.542 E2.47975
G1 X144.17 Y50.265 E2.59776
G1 X146.589 Y50.913 E2.71437
G1 X149.069 Y51.504 E2.83308
G1 X151.503 Y52.008 E2.94882
G1 X153.989 Y52.452 E3.06641
G1 X156.459 Y52.821 E3.1827
G1 X158.972 Y53.124 E3.30056
G1 X161.478 Y53.355 E3.41775
G1 X164.008 Y53.516 E3.53579
G1 X166.494 Y53.604 E3.65163
G1 X169.015 Y53.621 E3.76902
G1 X171.576 Y53.567 E3.88829
G1 X174.027 Y53.445 E4.00256
G1 X176.571 Y53.247 E4.12138
G1 X179.067 Y52.98 E4.23827
G1 X181.555 Y52.644 E4.35517
G1 X184.056 Y52.233 E4.47319
G1 X186.501 Y51.761 E4.58914
G1 X188.96 Y51.213 E4.70645
G1 X191.432 Y50.589 E4.82517
G1 X193.833 Y49.909 E4.94137
G1 X196.233 Y49.155 E5.05851
G1 X198.625 Y48.33 E5.17633
G1 X200.97 Y47.445 E5.29304
G1 X203.304 Y46.489 E5.41048
G1 X205.595 Y45.473 E5.52718
G1 X207.87 Y44.386 E5.64459
G1 X210.134 Y43.225 E5.76306
G1 X212.294 Y42.04 E5.87778
G1 X214.494 Y40.749 E5.99656
G1 X216.635 Y39.411 E6.11412
G1 X218.731 Y38.016 E6.23136
G1 X220.772 Y36.573 E6.34775
G1 X222.803 Y35.05 E6.46596
G1 X224.753 Y33.499 E6.58197
G1 X226.7 Y31.859 E6.70051
G1 X228.552 Y30.206 E6.8161
G1 X230.521 Y28.347 E6.94219
G1 X231.23 Y27.733 E6.98587
G1 X231.989 Y27.181 E7.02957
G1 X232.792 Y26.696 E7.07325
G1 X233.633 Y26.282 E7.1169
G1 X234.506 Y25.94 E7.16056
G1 X235.406 Y25.674 E7.20426
G1 X236.324 Y25.486 E7.24789
G1 X237.256 Y25.376 E7.29159
G1 X238.193 Y25.347 E7.33524
G1 X239.13 Y25.397 E7.37893
G1 X240.059 Y25.527 E7.42261
G1 X240.973 Y25.735 E7.46626
G1 X241.866 Y26.021 E7.50992
G1 X242.732 Y26.382 E7.55361
G1 X243.564 Y26.815 E7.59729
G1 X244.356 Y27.317 E7.64095
G1 X245.102 Y27.886 E7.68464
G1 X245.621 Y28.345 E7.7169
G1 X245.816 Y28.529 E7.72938
G1 X246.043 Y28.75 E7.74413
G1 X252.954 Y35.658 E8.19914
G1 X253.719 Y36.445 E8.25024
G1 X255.632 Y38.471 E8.37999
G1 X257.388 Y40.225 E8.49556
G1 X259.778 Y42.487 E8.64879
G1 X259.993 Y42.697 E8.66278
G1 X267.02 Y49.725 E9.12556
G1 X267.488 Y50.205 E9.15677
G1 X268.114 Y50.904 E9.20047
G1 X268.677 Y51.653 E9.2441
G1 X269.175 Y52.448 E9.28778
G1 X269.603 Y53.282 E9.33143
G1 X269.959 Y54.15 E9.37511
G1 X270.239 Y55.045 E9.41878
G1 X270.443 Y55.961 E9.46248
G1 X270.567 Y56.89 E9.50612
G1 X270.612 Y57.827 E9.5498
G1 X270.577 Y58.764 E9.59346
G1 X270.462 Y59.695 E9.63714
G1 X270.268 Y60.613 E9.68083
G1 X269.997 Y61.511 E9.72451
G1 X269.65 Y62.382 E9.76817
G1 X269.231 Y63.221 E9.81184
G1 X268.741 Y64.021 E9.85552
G1 X268.185 Y64.776 E9.89918
G1 X267.637 Y65.407 E9.9381
G1 X267.427 Y65.631 E9.95239
G1 X267.18 Y65.886 E9.96892
G1 X264.939 Y68.127 E10.1165
G1 X263.12 Y69.999 E10.23804
G1 X261.413 Y71.857 E10.35552
G1 X259.743 Y73.784 E10.47426
G1 X258.169 Y75.702 E10.58979
G1 X256.609 Y77.72 E10.70856
G1 X255.152 Y79.721 E10.82382
G1 X253.708 Y81.825 E10.94265
G1 X252.349 Y83.929 E11.05928
G1 X251.061 Y86.053 E11.17494
G1 X249.798 Y88.275 E11.29396
G1 X248.618 Y90.497 E11.41111
G1 X247.501 Y92.749 E11.52816
G1 X246.446 Y95.042 E11.64569
G1 X245.472 Y97.322 E11.76114
G1 X244.519 Y99.738 E11.88207
G1 X243.69 Y102.033 E11.9957
G1 X242.893 Y104.452 E12.11429
G1 X242.176 Y106.847 E12.2307
G1 X241.517 Y109.304 E12.34915
G1 X240.937 Y111.74 E12.46576
G1 X240.42 Y114.218 E12.58363
G1 X239.978 Y116.693 E12.7007
G1 X239.608 Y119.155 E12.81662
G1 X239.301 Y121.683 E12.9352
G1 X239.069 Y124.187 E13.0523
G1 X238.91 Y126.669 E13.16811
G1 X238.82 Y129.192 E13.28567
G1 X238.8 Y131.718 E13.40329
G1 X238.853 Y134.246 E13.52103
G1 X238.975 Y136.753 E13.6379
G1 X239.17 Y139.252 E13.75462
G1 X239.436 Y141.768 E13.87243
G1 X239.774 Y144.28 E13.99045
G1 X240.172 Y146.708 E14.10502
G1 X240.655 Y149.218 E14.22404
G1 X241.206 Y151.694 E14.34215
G1 X241.811 Y154.098 E14.45759
G1 X242.498 Y156.53 E14.57526
G1 X243.276 Y159.013 E14.69642
G1 X243.352 Y159.246 E14.70783
G1 X243.604 Y160.149 E14.75149
G1 X243.779 Y161.071 E14.79519
G1 X243.875 Y162.004 E14.83886
G1 X243.89 Y162.941 E14.8825
G1 X243.826 Y163.877 E14.92618
G1 X243.682 Y164.804 E14.96987
G1 X243.46 Y165.715 E15.01353
G1 X243.162 Y166.604 E15.05719
G1 X242.956 Y167.102 E15.08228
G1 X242.39 Y168.381 E15.14741
G1 X241.377 Y170.757 E15.26768
G1 X240.46 Y173.084 E15.38414
G1 X239.605 Y175.462 E15.50181
G1 X238.83 Y177.82 E15.61739
G1 X238.102 Y180.26 E15.73596
G1 X237.461 Y182.655 E15.8514
G1 X236.867 Y185.154 E15.97101
G1 X236.359 Y187.599 E16.08729
G1 X235.918 Y190.075 E16.2044
G1 X235.55 Y192.538 E16.32036
G1 X235.245 Y195.065 E16.43888
G1 X235.014 Y197.574 E16.5562
G1 X234.962 Y198.389 E16.59423
G1 X234.881 Y199.429 E16.6428
G1 X234.768 Y200.36 E16.68647
G1 X234.577 Y201.278 E16.73013
G1 X234.308 Y202.177 E16.77383
G1 X233.963 Y203.049 E16.8175
G1 X233.545 Y203.889 E16.86118
G1 X233.058 Y204.69 E16.90484
G1 X232.504 Y205.447 E16.94852
G1 X231.917 Y206.122 E16.99017
G1 X231.685 Y206.368 E17.00591
G1 X231.46 Y206.599 E17.02093
G1 X200.642 Y237.417 E19.05035
G1 X200.147 Y237.897 E19.08245
G1 X199.446 Y238.521 E19.12615
G1 X198.695 Y239.082 E19.1698
G1 X197.899 Y239.578 E19.21348
G1 X197.063 Y240.004 E19.25717
G1 X196.194 Y240.357 E19.30084
G1 X195.299 Y240.635 E19.34448
G1 X194.383 Y240.836 E19.38815
G1 X193.203 Y240.977 E19.44348
G1 X192.78 Y241.005 E19.46322
G1 X190.165 Y241.209 E19.58536
G1 X187.671 Y241.475 E19.70215
G1 X185.173 Y241.812 E19.81952
G1 X182.695 Y242.22 E19.93646
G1 X180.237 Y242.695 E20.05303
G1 X177.781 Y243.243 E20.17021
G1 X175.311 Y243.867 E20.28883
G1 X172.922 Y244.543 E20.40444
G1 X170.498 Y245.305 E20.52276
G1 X168.104 Y246.131 E20.64068
G1 X165.769 Y247.012 E20.75689
G1 X163.449 Y247.963 E20.87365
G1 X161.031 Y249.035 E20.99681
G1 X160.159 Y249.378 E21.04044
G1 X159.26 Y249.646 E21.08412
G1 X158.341 Y249.836 E21.12782
G1 X157.41 Y249.947 E21.17148
G1 X156.473 Y249.979 E21.21513
G1 X155.536 Y249.93 E21.25882
G1 X154.497 Y249.781 E21.3077
G1 X153.355 Y249.561 E21.36185
G1 X152.576 Y249.4 E21.39889
G1 X150.098 Y248.96 E21.51608
G1 X147.598 Y248.589 E21.63377
G1 X145.12 Y248.293 E21.74997
G1 X142.605 Y248.064 E21.86757
G1 X140.093 Y247.908 E21.98476
G1 X137.561 Y247.821 E22.10273
G1 X135.042 Y247.806 E22.22003
G1 X132.547 Y247.862 E22.33624
G1 X130.03 Y247.99 E22.45359
G1 X127.52 Y248.188 E22.57083
G1 X125.011 Y248.459 E22.68834
G1 X122.515 Y248.8 E22.80564
G1 X120.042 Y249.208 E22.92235
G1 X117.557 Y249.692 E23.04024
G1 X115.137 Y250.234 E23.15572
G1 X112.657 Y250.863 E23.27485
G1 X110.245 Y251.549 E23.39162
G1 X107.862 Y252.299 E23.50795
G1 X105.468 Y253.129 E23.62593
G1 X103.104 Y254.025 E23.74365
G1 X100.768 Y254.984 E23.86123
G1 X98.509 Y255.989 E23.97636
G1 X96.202 Y257.094 E24.09547
G1 X93.984 Y258.235 E24.21162
G1 X91.764 Y259.457 E24.32961
G1 X89.599 Y260.73 E24.44656
G1 X87.463 Y262.069 E24.56395
G1 X85.367 Y263.467 E24.68127
G1 X83.317 Y264.92 E24.79827
G1 X81.335 Y266.408 E24.91367
G1 X79.297 Y268.034 E25.03507
G1 X78.267 Y268.893 E25.09752
G1 X77.095 Y269.886 E25.16905
G1 X76.373 Y270.48 E25.21259
G1 X75.624 Y271.044 E25.25625
G1 X75.142 Y271.358 E25.28303
G1 X74.504 Y271.748 E25.31785
G1 X71.938 Y273.276 E25.45691
G1 X71.302 Y273.643 E25.49111
G1 X70.166 Y274.213 E25.55029
G1 X69.796 Y274.37 E25.569
G1 X69.294 Y274.571 E25.59418
G1 X66.392 Y275.704 E25.73925
G1 X65.746 Y275.945 E25.77135
G1 X64.498 Y276.328 E25.83214
G1 X64.197 Y276.399 E25.84654
G1 X63.523 Y276.549 E25.87869
G1 X60.641 Y277.152 E26.0158
G1 X59.919 Y277.294 E26.05006
G1 X58.7 Y277.464 E26.10737
G1 X58.282 Y277.494 E26.12688
G1 X57.624 Y277.528 E26.15756
G1 X54.603 Y277.651 E26.29835
G1 X53.901 Y277.67 E26.33105
G1 X52.714 Y277.638 E26.38634
G1 X52.252 Y277.595 E26.40795
G1 X51.699 Y277.532 E26.43386
G1 X48.613 Y277.146 E26.57868
G1 X47.928 Y277.051 E26.61088
G1 X46.694 Y276.807 E26.66946
G1 X46.332 Y276.71 E26.68691
G1 X45.726 Y276.537 E26.71625
G1 X42.827 Y275.673 E26.85711
G1 X42.145 Y275.46 E26.89038
G1 X40.924 Y274.998 E26.95117
G1 X40.595 Y274.847 E26.96802
G1 X40.073 Y274.599 E26.99493
G1 X37.434 Y273.31 E27.13169
G1 X36.674 Y272.925 E27.17136
G1 X35.656 Y272.337 E27.2261
G1 X35.292 Y272.094 E27.24648
G1 X34.783 Y271.739 E27.27538
G1 X32.273 Y269.944 E27.41907
G1 X31.73 Y269.545 E27.45044
G1 X30.803 Y268.784 E27.50629
G1 X30.693 Y268.683 E27.51324
G1 X30.429 Y268.432 E27.53021
G1 X30.091 Y268.099 E27.5523
G1 X27.878 Y265.886 E27.69803
G1 X27.389 Y265.383 E27.7307
G1 X26.528 Y264.384 E27.79211
G1 X26.326 Y264.116 E27.80773
G1 X25.969 Y263.626 E27.83596
G1 X24.18 Y261.118 E27.97941
G1 X23.793 Y260.558 E28.01111
G1 X23.209 Y259.615 E28.06276
G1 X23.15 Y259.508 E28.06845
G1 X22.954 Y259.135 E28.08807
G1 X22.69 Y258.61 E28.11543
G1 X21.403 Y255.977 E28.2519
G1 X21.049 Y255.226 E28.29056
G1 X20.584 Y254.076 E28.34832
G1 X20.455 Y253.685 E28.36749
G1 X20.254 Y253.032 E28.3993
G1 X19.403 Y250.173 E28.5382
G1 X19.211 Y249.49 E28.57124
G1 X18.946 Y248.295 E28.62824
G1 X18.891 Y247.936 E28.64515
G1 X18.796 Y247.231 E28.67827
G1 X18.432 Y244.312 E28.81524
G1 X18.348 Y243.545 E28.85117
G1 X18.283 Y242.347 E28.90704
G1 X18.288 Y241.966 E28.92478
G1 X18.309 Y241.27 E28.9572
G1 X18.436 Y238.237 E29.09856
G1 X18.474 Y237.556 E29.13032
G1 X18.601 Y236.393 E29.18479
G1 X18.619 Y236.283 E29.18998
G1 X18.686 Y235.914 E29.20745
G1 X18.813 Y235.279 E29.2376
G1 X19.43 Y232.343 E29.3773
G1 X19.589 Y231.637 E29.411
G1 X19.934 Y230.431 E29.46941
G1 X20.052 Y230.101 E29.48573
G1 X20.287 Y229.477 E29.51677
G1 X21.396 Y226.641 E29.65857
G1 X21.657 Y226 E29.69079
G1 X22.048 Y225.147 E29.73449
G1 X22.31 Y224.663 E29.76011
G1 X22.693 Y224 E29.79577
G1 X24.27 Y221.355 E29.93916
G1 X24.616 Y220.793 E29.96989
G1 X25.331 Y219.768 E30.02808
G1 X25.587 Y219.446 E30.04724
G1 X25.966 Y218.989 E30.07488
G1 X27.947 Y216.651 E30.21758
G1 X28.346 Y216.194 E30.24582
G1 X30.027 Y214.208 E30.36698
G1 X31.608 Y212.233 E30.48478
G1 X33.108 Y210.244 E30.60078
G1 X34.579 Y208.173 E30.71907
G1 X35.977 Y206.086 E30.83604
G1 X37.32 Y203.95 E30.95352
G1 X38.578 Y201.817 E31.06883
G1 X39.821 Y199.57 E31.1884
G1 X40.968 Y197.348 E31.30484
G1 X42.061 Y195.074 E31.42232
G1 X43.086 Y192.78 E31.53932
G1 X44.054 Y190.441 E31.65719
G1 X44.94 Y188.103 E31.77361
G1 X45.774 Y185.711 E31.89157
G1 X46.524 Y183.343 E32.00723
G1 X47.219 Y180.915 E32.12483
G1 X47.843 Y178.471 E32.24229
G1 X48.413 Y175.953 E32.3625
G1 X48.882 Y173.552 E32.47641
G1 X49.298 Y171.058 E32.59415
G1 X49.639 Y168.593 E32.71002
G1 X49.919 Y166.03 E32.83008
G1 X50.117 Y163.575 E32.94476
G1 X50.25 Y161.044 E33.06278
G1 X50.31 Y158.521 E33.1803
G1 X50.3 Y155.997 E33.29782
G1 X50.219 Y153.509 E33.41374
G1 X50.063 Y150.957 E33.53279
G1 X49.84 Y148.464 E33.64934
G1 X49.549 Y145.994 E33.76515
G1 X49.181 Y143.479 E33.8835
G1 X48.744 Y140.997 E34.00085
G1 X48.232 Y138.5 E34.11954
G1 X48.121 Y138.014 E34.14276
G1 X48.071 Y137.784 E34.15372
G1 X48.006 Y137.469 E34.16869
G1 X47.856 Y136.543 E34.21237
G1 X47.785 Y135.608 E34.25604
G1 X47.794 Y134.67 E34.29972
G1 X47.883 Y133.737 E34.34336
G1 X48.051 Y132.814 E34.38704
G1 X48.297 Y131.909 E34.43071
G1 X48.721 Y130.791 E34.48639
G1 X49.356 Y129.357 E34.55942
G1 X50.342 Y127.029 E34.67714
G1 X51.267 Y124.667 E34.79526
G1 X52.119 Y122.291 E34.91279
G1 X52.893 Y119.926 E35.02866
G1 X53.607 Y117.515 E35.14575
G1 X54.264 Y115.042 E35.2649
G1 X54.838 Y112.607 E35.38139
G1 X55.338 Y110.168 E35.49732
G1 X55.782 Y107.655 E35.61615
G1 X56.145 Y105.198 E35.7318
G1 X56.443 Y102.681 E35.84982
G1 X56.67 Y100.161 E35.96764
G1 X56.721 Y99.374 E36.00436
G1 X56.792 Y98.469 E36.04663
G1 X56.905 Y97.538 E36.0903
G1 X57.097 Y96.62 E36.13397
G1 X57.366 Y95.721 E36.17766
G1 X57.712 Y94.849 E36.22135
G1 X58.13 Y94.01 E36.265
G1 X58.618 Y93.209 E36.30867
G1 X59.172 Y92.453 E36.35231
G1 X59.753 Y91.785 E36.39354
G1 X59.982 Y91.542 E36.40908
G1 X60.209 Y91.308 E36.42427
G1 X91.037 Y60.483 E38.45424
G0 F6000 X91.315 Y60.77
G1 F1200 X91.796 Y60.303 E38.48546
G1 X92.563 Y59.627 E38.53307
G1 X93.306 Y59.083 E38.57595
G1 X94.094 Y58.607 E38.61881
G1 X94.92 Y58.2 E38.66169
G1 X95.778 Y57.866 E38.70456
G1 X96.662 Y57.609 E38.74743
G1 X97.565 Y57.429 E38.7903
G1 X98.502 Y57.326 E38.8342
G1 X98.939 Y57.298 E38.85459
G1 X101.532 Y57.096 E38.9757
G1 X104.079 Y56.823 E39.09497
G1 X106.557 Y56.488 E39.21141
G1 X109.052 Y56.077 E39.32915
G1 X111.535 Y55.597 E39.44691
G1 X113.964 Y55.055 E39.5628
G1 X116.482 Y54.42 E39.68372
G1 X118.866 Y53.744 E39.7991
G1 X121.324 Y52.972 E39.91907
G1 X123.684 Y52.157 E40.03533
G1 X126.045 Y51.266 E40.15284
G1 X128.392 Y50.303 E40.27096
G1 X130.801 Y49.235 E40.39367
G1 X131.658 Y48.899 E40.43653
G1 X132.541 Y48.638 E40.4794
G1 X133.444 Y48.455 E40.52231
G1 X134.358 Y48.351 E40.56514
G1 X135.279 Y48.327 E40.60804
G1 X136.198 Y48.382 E40.65091
G1 X137.108 Y48.517 E40.69375
G1 X138.004 Y48.731 E40.73664
G1 X138.554 Y48.904 E40.76349
G1 X139.145 Y49.108 E40.7926
G1 X141.639 Y49.929 E40.91486
G1 X144.024 Y50.64 E41.03075
G1 X146.507 Y51.305 E41.15044
G1 X149 Y51.898 E41.26977
G1 X151.416 Y52.399 E41.38466
G1 X153.897 Y52.842 E41.50201
G1 X156.423 Y53.219 E41.62094
G1 X158.958 Y53.525 E41.73983
G1 X161.417 Y53.751 E41.85482
G1 X164.002 Y53.916 E41.97543
G1 X166.477 Y54.004 E42.09075
G1 X169.021 Y54.021 E42.20921
G1 X171.569 Y53.967 E42.32788
G1 X174.077 Y53.843 E42.44481
G1 X176.611 Y53.645 E42.56316
G1 X179.122 Y53.377 E42.68075
G1 X181.607 Y53.041 E42.79751
G1 X184.126 Y52.628 E42.91638
G1 X186.593 Y52.151 E43.03338
G1 X189.03 Y51.607 E43.14965
G1 X191.542 Y50.974 E43.27027
G1 X193.924 Y50.299 E43.38556
G1 X196.367 Y49.532 E43.50479
G1 X198.76 Y48.706 E43.62267
G1 X201.127 Y47.813 E43.74047
G1 X203.469 Y46.853 E43.85833
G1 X205.751 Y45.842 E43.97455
G1 X208.046 Y44.745 E44.09299
G1 X210.302 Y43.588 E44.21105
G1 X212.524 Y42.369 E44.32906
G1 X214.713 Y41.084 E44.44726
